svgs/duotone/usb-drive.svg

<svg xmlns="http://www.w3.org/2000/svg" viewBox="0 0 640 512"><!--! Font Awesome Pro 6.3.0 by @fontawesome - https://fontawesome.com License - https://fontawesome.com/license (Commercial License) Copyright 2023 Fonticons, Inc. --><defs><style>.fa-secondary{opacity:.4}</style></defs><path class="fa-primary" d="M0 160v192c0 35.35 28.65 64 64 64l416 .0005v-320L64 96C28.65 96 0 124.7 0 160z"/><path class="fa-secondary" d="M608 128h-128v256h128c17.67 0 32-14.33 32-32V160C640 142.3 625.7 128 608 128zM584 312c0 8.875-7.125 16-16 16h-16c-8.875 0-16-7.125-16-16v-16c0-8.875 7.125-16 16-16h16c8.875 0 16 7.125 16 16V312zM584 216c0 8.875-7.125 16-16 16h-16c-8.875 0-16-7.125-16-16v-16c0-8.875 7.125-16 16-16h16c8.875 0 16 7.125 16 16V216z"/></svg>

<svg xmlns="http://www.w3.org/2000/svg" viewBox="0 0 640 512"><!-- Font Awesome Pro 6.0.0-alpha2 by @fontawesome - https://fontawesome.com License - https://fontawesome.com/license (Commercial License) --><defs><style>.fa-secondary{opacity:.4}</style></defs><path d="M608 128H480V384H608C625.674 384 640 369.672 640 352V160C640 142.326 625.674 128 608 128ZM584 312C584 320.875 576.875 328 568 328H552C543.125 328 536 320.875 536 312V296C536 287.125 543.125 280 552 280H568C576.875 280 584 287.125 584 296V312ZM584 216C584 224.875 576.875 232 568 232H552C543.125 232 536 224.875 536 216V200C536 191.125 543.125 184 552 184H568C576.875 184 584 191.125 584 200V216Z" class="fa-secondary"/><path d="M0 160.001V352.001C0 387.346 28.654 416.001 64 416.001H480V96.001H64C28.654 96.001 0 124.653 0 160.001Z" class="fa-primary"/></svg>
